X: 16866
T: Haste To The Wedding
R: jig
M: 6/8
K: Dmajor
F/G/|:AFG Aaf|ede fdB|AFA dAF|GFG EFG|
AFG Aaf|ede fdB|AFA faf|1 ddd d2 F/G/:|2 ddd d2 a||
|:afa afa|bgb bgb|afa agf|gfg efg|
a3 f3|ede fdB|AFA faf|1 ddd d2 a:|2 ddd d3||

